X: 35358
T: Rosie's
R: reel
M: 4/4
K: Dmajor
|:"Bm"FB BA ~B2 dA|"F^m"FA ~A2 AB FE|"G"FB BA ~B2 AB|"D"de fd "A"~e3g|
"Bm"fB BA ~B2 dA|"F^m"FA AF AB FE|"Bm"FA ~B2 "Em"dB fd|"A"cA ec "Bm"dB BA|
"Bm"~F4 Bc dA|"F^m"~F3B AF ED|"G"FB BA ~B2 AB|"D"de fd "A"ea ba|
"Bm"fB BA ~B2 dB|"F^m"FA AF AB FE|"Bm"FB ~B2 "Em"dB fd|"A"cA ec "Bm"dB BA|
fB BB "Em7"g4-|gf fe ed cB|"A"~A2 ~A2 EA ce|"F^m"ae fa fe ce|
"Bm"fB ~B2 "Em7"gf eg|"Bm"fB ~B2 "D"dc Bc|"A"AB cA EA ce|"F^m"ae ce "Bm"fB ~B2|
"Bm"fB ~B2 "A"ge ag|"D"fB ~B2 "G"dB ec|"A"~A2 ~A2 EA ce|"F^m"ae ga fe ce|
"G"fB ~B2 ba fe|"Gmaug7"fB ~B2 dc Bc|"F^m7sus4"a4 af ec|"F^m7"~d2 c/B/A BA FE:|

